themes/wwwevergreen/images/icons/header/user.svg

<?xml version="1.0" standalone="no"?><!-- Generator: Gravit.io --><svg xmlns="http://www.w3.org/2000/svg" xmlns:xlink="http://www.w3.org/1999/xlink" style="isolation:isolate" viewBox="0 0 16 16" width="16" height="16"><path d=" M 4 5 C 4 7.209 5.791 9 8 9 C 10.209 9 12 7.209 12 5 C 12 2.791 10.209 1 8 1 C 5.791 1 4 2.791 4 5 L 4 5 Z  M 12 10 L 4 10 C 1.791 10 0 11.791 0 14 L 0 16 L 0.126 16 L 15.874 16 L 16 16 L 16 14 C 16 11.791 14.209 10 12 10 Z " fill="rgb(0,0,0)"/></svg>

<svg xmlns="http://www.w3.org/2000/svg" style="isolation:isolate" viewBox="0 0 16 16"><path class="icon" d="M4 5c0 2.21 1.79 4 4 4s4-1.79 4-4-1.79-4-4-4-4 1.79-4 4zm8 5H4c-2.21 0-4 1.79-4 4v2H16v-2c0-2.21-1.79-4-4-4z"/></svg>
